X:1
T:Partition sans titre
C:Compositeur / Arrangeur
L:1/8
M:4/4
I:linebreak $
K:D
V:1 treble nm="Violon" snm="Vln."
V:1
"D" A2 d2 d2 f2 |"A" edcB ABcd | efed cdef |"G" g4 f2 ed |"A" cdec"D" d2 fd |"A" cde^g a2 ed | %6
 c2 Ac B2 ^G2 |1 A4 A3 B :|2 A4 a3 g |:"D" f2 e2 defd |"A" e4 edeg |"D" fgfe defd |"A" e4 edeg | %13
"D" f2 ef g2 fg |"A" a4 abag |"D" fafd"A" egec |1"D" d4 a3 g :|2"D" d4 A3 B |] %18
